build/img/icon__rating_red.svg

<svg width="12" height="12" viewBox="0 0 12 12" fill="none" xmlns="http://www.w3.org/2000/svg">
<g clip-path="url(#clip0)">
<path d="M11.9828 4.62324C11.9414 4.49596 11.8314 4.40319 11.699 4.38397L7.97896 3.84339L6.31525 0.47245C6.25605 0.35245 6.13382 0.276489 6.00002 0.276489C5.86619 0.276489 5.74399 0.35245 5.68476 0.47245L4.02099 3.84339L0.301004 4.38397C0.168606 4.40319 0.058567 4.49596 0.0172234 4.62322C-0.0241436 4.75051 0.0103562 4.89022 0.106192 4.98362L2.79793 7.60753L2.16259 11.3126C2.13995 11.4445 2.19418 11.5778 2.30244 11.6564C2.36368 11.7009 2.43622 11.7236 2.50911 11.7236C2.56508 11.7236 2.62124 11.7102 2.67266 11.6832L6 9.93386L9.32719 11.6832C9.44567 11.7454 9.58918 11.7351 9.69743 11.6564C9.80569 11.5778 9.85995 11.4445 9.83733 11.3125L9.20178 7.60753L11.8938 4.98359C11.9896 4.89022 12.0242 4.75051 11.9828 4.62324Z" fill="#FF5D46"/>
</g>
<defs>
<clipPath id="clip0">
<rect width="12" height="12" fill="white"/>
</clipPath>
</defs>
</svg>

<svg width="12" height="12" fill="none" xmlns="http://www.w3.org/2000/svg"><g clip-path="url(#clip0)"><path d="M11.983 4.623a.352.352 0 00-.284-.239l-3.72-.54L6.315.471a.352.352 0 00-.63 0L4.02 3.843.3 4.384a.352.352 0 00-.195.6l2.692 2.624-.635 3.705a.351.351 0 00.51.37L6 9.933l3.327 1.75a.352.352 0 00.51-.37l-.635-3.705 2.692-2.624a.351.351 0 00.089-.36z" fill="#FF5D46"/></g><defs><clipPath id="clip0"><path fill="#fff" d="M0 0h12v12H0z"/></clipPath></defs></svg>
